icons/device/microphone-fill.svg

<svg width="32" height="32" viewBox="0 0 32 32" fill="none" xmlns="http://www.w3.org/2000/svg">
<path fill-rule="evenodd" clip-rule="evenodd" d="M10 4C10 2.89543 10.8954 2 12 2H20C21.1046 2 22 2.89543 22 4V20C22 21.1046 21.1046 22 20 22H12C10.8954 22 10 21.1046 10 20V4ZM6 16V20C6 23.3137 8.68629 26 12 26H15V28H10V30H22V28H17V26H20C23.3137 26 26 23.3137 26 20V16H24V20C24 22.2091 22.2091 24 20 24H17H15H12C9.79086 24 8 22.2091 8 20V16H6Z" fill="black"/>
</svg>

<svg width="32" height="32" viewBox="0 0 32 32" xmlns="http://www.w3.org/2000/svg">
    <path fill-rule="evenodd" d="M10 4a2 2 0 012-2h8a2 2 0 012 2v16a2 2 0 01-2 2h-8a2 2 0 01-2-2V4zM6 16v4a6 6 0 006 6h3v2h-5v2h12v-2h-5v-2h3a6 6 0 006-6v-4h-2v4a4 4 0 01-4 4h-8a4 4 0 01-4-4v-4H6z"/>
</svg>
